dist/assets/uwm-icons/icon_call_solid.svg

<?xml version="1.0" encoding="UTF-8"?>
<svg width="24px" height="24px" viewBox="0 0 24 24" version="1.1" xmlns="http://www.w3.org/2000/svg" xmlns:xlink="http://www.w3.org/1999/xlink">
    <!-- Generator: Sketch 48.2 (47327) - http://www.bohemiancoding.com/sketch -->
    <title>icon_call_solid</title>
    <desc>Created with Sketch.</desc>
    <defs></defs>
    <g id="Icons" stroke="none" stroke-width="1" fill="none" fill-rule="evenodd">
        <g id="icon_call_solid">
            <rect id="Rectangle" fill="#FFFFFF" x="0" y="0" width="24" height="24"></rect>
            <path d="M17.9516538,19.1215428 L16.1389926,15.3166132 C16.0227051,15.0721543 15.7317491,14.9690982 15.4896812,15.0870136 L13.9983533,15.8112828 C13.5678522,16.0207504 13.0509661,15.837646 12.8440218,15.4028927 L10.1001114,9.64325114 C9.89411641,9.21089456 10.0721075,8.69129972 10.4988114,8.47991474 L11.9939365,7.74030697 C12.2341058,7.6219122 12.3342554,7.32952028 12.2179679,7.08649945 L10.4038828,3.27821445 C10.2875953,3.03375563 9.99711391,2.93117879 9.7545714,3.04861489 L7.94475814,3.92770799 C6.2369931,4.75790933 5.51838379,6.82861936 6.3399906,8.55421105 L11.3337082,19.0357426 C12.155315,20.760855 14.2062469,21.4865621 15.9144866,20.6563608 L17.7242998,19.7772677 C17.9663677,19.6598316 18.0684159,19.3660017 17.9516538,19.1215428" id="Fill-81" fill="#000000"></path>
        </g>
    </g>
</svg>

<svg width="24" height="24" xmlns="http://www.w3.org/2000/svg"><g fill="none" fill-rule="evenodd"><path fill="#FFF" d="M0 0h24v24H0z"/><path d="M17.952 19.122l-1.813-3.805a.484.484 0 0 0-.65-.23l-1.49.724a.86.86 0 0 1-1.155-.408L10.1 9.643a.878.878 0 0 1 .4-1.163l1.495-.74c.24-.118.34-.41.224-.654l-1.814-3.808a.484.484 0 0 0-.65-.23l-1.81.88c-1.707.83-2.426 2.9-1.604 4.626l4.994 10.482a3.417 3.417 0 0 0 4.58 1.62l1.81-.879a.493.493 0 0 0 .228-.655" fill="#000"/></g></svg>
